X: 35
T: Missa Ecce ancilla domini
N: Derived from Ock1006c-Missa_Ecce_ancilla_domini-Credo.krn
C: Johannes Ockeghem
%%abc-version 2.0
%%abcx-abcm2ps-target-version 5.9.1 (29 Sep 2008)
%%abc-creator hum2abc beta
%%abcx-conversion-date 2019/02/17 07:26:14
%%abc-edited-by Jesse Rodin
%%abc-edited-by Will Watson 12/09/2012
%%abcx-initial-encoding-date 2015/12/05/
%%humdrum-veritas 1157338907
%%humdrum-veritas-data 1723694572
%%linebreak <none>
%%barnumbers 0
L: 1/4
M: 3/1
Q: 1/2=120
%%staves [1 2 3 4]
V: 1 clef=treble
V: 2 clef=treble-8
V: 3 clef=bass
V: 4 clef=bass
K: F
[V:1] G6A4GF | 
[V:2] c8c4 | 
[V:3] z12 | 
[V:4] z12 | 
[V:1] E4G3FD4 | 
[V:2] c6d4cB | 
[V:3] z12 | 
[V:4] z12 | 
[V:1] C4z4G4 | 
[V:2] A4c3BG4 | 
[V:3] z12 | 
[V:4] z12 | 
[V:1] A4B2c3BG2 | 
[V:2] F4z4c4 | 
[V:3] z12 | 
[V:4] z12 | 
[V:1] F2A2G2A3GE2 | 
[V:2] d4e2f3ec2 | 
[V:3] z12 | 
[V:4] z12 | 
[V:1] D2F2E4C2D2 | 
[V:2] B2d2G2A4F2 | 
[V:3] z12 | 
[V:4] z12 | 
[V:1] CB,A,2G,2C4=B,2 | 
[V:2] E2F2C2E2D4 | 
[V:3] z12 | 
[V:4] z12 | 
[V:1] C8z4 | 
[V:2] C12 | 
[V:3] z12 | 
[V:4] z12 | 
[V:1] G4A4G2E2- | 
[V:2] z4z4G4 | 
[V:3] z12 | 
[V:4] z12 | 
[V:1] E2F2G4C2B,2 | 
[V:2] A4G2E3FG2 | 
[V:3] z12 | 
[V:4] z12 | 
[V:1] C2D2C2G3AG2 | 
[V:2] C2G2A2G2c3B | 
[V:3] z12 | 
[V:4] z12 | 
[V:1] F2A3GFED4 | 
[V:2] d3cc2A2=B4 | 
[V:3] z12 | 
[V:4] z12 | 
[V:1] z2A4B4AG | 
[V:2] c4d6cB | 
[V:3] z12 | 
[V:4] z12 | 
[V:1] F2G2B2A2B2A2- | 
[V:2] A2G4c2B2c2 | 
[V:3] z12 | 
[V:4] z12 | 
[V:1] A2G4^F2G4 | 
[V:2] d2B2A4G4 | 
[V:3] z12 | 
[V:4] z4z4z2C,2 | 
[V:1] z12 | 
[V:2] z2G2F2G2A2F2 | 
[V:3] z12 | 
[V:4] B,,2C,2D,2B,,2A,,4 | 
[V:1] z12 | 
[V:2] E4D2G2A2B2 | 
[V:3] z12 | 
[V:4] G,,2C,2D,2E,2F,2D,2 | 
[V:1] z12 | 
[V:2] c2A2G4z2d2 | 
[V:3] z12 | 
[V:4] C,4z2G,2F,2G,2 | 
[V:1] z12 | 
[V:2] c2d2e2c2d4 | 
[V:3] z12 | 
[V:4] A,2F,2E,2F,4G,2 | 
[V:1] z12 | 
[V:2] c2B2A4G4 | 
[V:3] z12 | 
[V:4] A,2G,4^F,2G,4 | 
[V:1] z12 | 
[V:2] z4F4E4 | 
[V:3] z12 | 
[V:4] F,2E,2D,4C,4 | 
[V:1] z12 | 
[V:2] A4G3F/E/F2C2 | 
[V:3] z12 | 
[V:4] z4B,,4A,,4 | 
[V:1] z12 | 
[V:2] F4E4z2D2- | 
[V:3] z12 | 
[V:4] D,4C,3B,,/A,,/B,,2F,,2 | 
[V:1] z12 | 
[V:2] D2D2E2F2G4 | 
[V:3] z12 | 
[V:4] B,,4A,,4G,,2C,2 | 
[V:1] z12 | 
[V:2] z2G2A2B2c3A | 
[V:3] z12 | 
[V:4] D,2E,2F,3D,E,2F,2 | 
[V:1] z12 | 
[V:2] B2d3cA2c3B | 
[V:3] z12 | 
[V:4] G,3F,D,2F,3E,C,2 | 
[V:1] z12 | 
[V:2] AGB2A2F2G4 | 
[V:3] z12 | 
[V:4] D,4C,2F,3E,E,2- | 
[V:1] z12 | 
[V:2] F4E4D4 | 
[V:3] z12 | 
[V:4] E,D,D,3C,C,3B,,2G,, | 
[V:1] z12 | 
[V:2] C2D2E4D4 | 
[V:3] z12 | 
[V:4] A,,2G,,2z2G,4F,2 | 
[V:1] z12 | 
[V:2] C4c4B2c2 | 
[V:3] z12 | 
[V:4] G,2A,4F,2G,2E,2 | 
[V:1] z12 | 
[V:2] d2B2c4A2G2- | 
[V:3] z12 | 
[V:4] D,2G,2E,2F,4E,2 | 
[V:1] z12 | 
[V:2] G2c2d2e3cd2 | 
[V:3] z12 | 
[V:4] C,4B,,2C,2A,,2G,,2- | 
[V:1] z12 | 
[V:2] e3cd2c4=B2 | 
[V:3] z12 | 
[V:4] G,,2C,3G,,C,2D,4 | 
[V:1] E4E4E4 | 
[V:2] c4z4c4 | 
[V:3] G,12- | 
[V:4] C,12 | 
[V:1] G8G4 | 
[V:2] d4e8 | 
[V:3] G,12 | 
[V:4] z4C,8 | 
[V:1] A6c4B2 | 
[V:2] f6edc4- | 
[V:3] F,12 | 
[V:4] F,,12 | 
[V:1] A3GG3FE4 | 
[V:2] c2d2e4c4 | 
[V:3] E,4G,8 | 
[V:4] C,12 | 
[V:1] D8E4 | 
[V:2] z4B4c4 | 
[V:3] G,12- | 
[V:4] G,,8C,4 | 
[V:1] D2C2E2F2G4 | 
[V:2] d2e4d4^c2 | 
[V:3] G,12 | 
[V:4] B,,2C,4D,2E,4 | 
[V:1] F6A4B2 | 
[V:2] d8f4 | 
[V:3] A,12- | 
[V:4] D,8A,,4- | 
[V:1] c6BAG4 | 
[V:2] e4g3fd4 | 
[V:3] A,4G,8 | 
[V:4] A,,4B,,8 | 
[V:1] A12 | 
[V:2] z12 | 
[V:3] F,12 | 
[V:4] A,,3B,,C,2D,4C,B,, | 
[V:1] z4B4c4 | 
[V:2] z12 | 
[V:3] F,4G,2G,4^F,2 | 
[V:4] A,,4G,,2B,,2A,,4 | 
[V:1] B2B4G2B3c | 
[V:2] d4d4d4 | 
[V:3] G,12 | 
[V:4] G,,12 | 
[V:1] A2G2F2A3GG2 | 
[V:2] e4f4e4 | 
[V:3] C,12 | 
[V:4] z4F,,4C,4 | 
[V:1] FDF2E2DD2^CC=B, | 
[V:2] d2cB2AA2G3E | 
[V:3] z12 | 
[V:4] D,4G,2F,2E,4 | 
[V:1] D4z4D4 | 
[V:2] F4G2G4F2 | 
[V:3] z4B,,8 | 
[V:4] D,12 | 
[V:1] B,6C2D4 | 
[V:2] G8z4 | 
[V:3] D,12- | 
[V:4] G,,12 | 
[V:1] F4G8 | 
[V:2] A4B8 | 
[V:3] D,12 | 
[V:4] z4G,,8 | 
[V:1] A4A4A4 | 
[V:2] c4d2c2f4- | 
[V:3] F,12 | 
[V:4] F,,12 | 
[V:1] c6BAG4 | 
[V:2] f2e2c4z2B2- | 
[V:3] F,8E,4 | 
[V:4] F,,8G,,4 | 
[V:1] F4A3Bc4- | 
[V:2] B2d4cBA3B | 
[V:3] D,4F,6E,D, | 
[V:4] B,,3A,,F,,8 | 
[V:1] c2BAG6FE | 
[V:2] c6BAG4 | 
[V:3] C,4C,4z2C,2- | 
[V:4] A,,3B,,C,4z4 | 
[V:1] D4C4z2G2- | 
[V:2] z2G4A2G2c2 | 
[V:3] C,2=B,,2C,8 | 
[V:4] G,,4G,2E,6 | 
[V:1] G2F2G8 | 
[V:2] B2A2c4d2e2- | 
[V:3] D,4C,4z2C,2- | 
[V:4] D,2F,2E,2C,2B,,2C,2 | 
[V:1] A4G4z2G2- | 
[V:2] e2f2d2e3dd2 | 
[V:3] C,2A,,2B,,2C,3B,,G,,2 | 
[V:4] A,,2F,,2G,,2C,2z2B,,2 | 
[V:1] GEF2E2G3FD2 | 
[V:2] c3AB3cd2G2- | 
[V:3] A,,4G,,8 | 
[V:4] C,4G,3F,D,2B,,2 | 
[V:1] E4D4z2D2 | 
[V:2] G2c2B3GB3c | 
[V:3] z12 | 
[V:4] C,4G,,8 | 
[V:1] F3GABc3BG2 | 
[V:2] def4e2c3d | 
[V:3] z12 | 
[V:4] z12 | 
[V:1] A2c2B2A3GG2- | 
[V:2] f2e2d3cc4 | 
[V:3] z12 | 
[V:4] z12 | 
[V:1] G2F2E2D3CB,2 | 
[V:2] B2A2G4F2G2 | 
[V:3] z12 | 
[V:4] z12 | 
[V:1] A,4G,4z4 | 
[V:2] AF2EG4A2c2- | 
[V:3] z12 | 
[V:4] D,4E,3D,/E,/F,2C,2 | 
[V:1] D4E2G4F2 | 
[V:2] c2=B2c4z4 | 
[V:3] G,,4C,4D,2F,2 | 
[V:4] D,4z2C,2B,,2D,2 | 
[V:1] G2A4F2G4 | 
[V:2] c4d2f4e2 | 
[V:3] E,E,2D,F,4z4 | 
[V:4] C,4F,,4C,4 | 
[V:1] F3GA2B4A2 | 
[V:2] f4d3Bc4 | 
[V:3] D,8C,4 | 
[V:4] D,2B,,2z2B,,2F,,4 | 
[V:1] B4c2A2G4 | 
[V:2] d4c2f4e2 | 
[V:3] B,,4z4C,4 | 
[V:4] F,8z4 | 
[V:1] F4E2F2G4 | 
[V:2] d4z4z4 | 
[V:3] D,4C,2F,4E,2 | 
[V:4] z12 | 
[V:1] F2E4D4^C2 | 
[V:2] z12 | 
[V:3] F,2G,4F,2E,4 | 
[V:4] z12 | 
[V:1] D2F3EC3B,C2 | 
[V:2] z12 | 
[V:3] D,4F,4E,2C,2 | 
[V:4] z12 | 
[V:1] D2C2F3E/F/G3E- | 
[V:2] z12 | 
[V:3] B,,2C,2D,4G,,2C,2- | 
[V:4] z12 | 
[V:1] ECD2E2C4=B,2 | 
[V:2] G8F4 | 
[V:3] C,2B,,2C,4D,4 | 
[V:4] z12 | 
[V:1] C8z4 | 
[V:2] G8z2G2- | 
[V:3] C,8z4 | 
[V:4] z4z4G,,4 | 
[V:1] z12 | 
[V:2] GAB2c3BAGF2 | 
[V:3] z12 | 
[V:4] C,3D,E,2F,3E,D,C, | 
[V:1] z12 | 
[V:2] G2A4B2G4 | 
[V:3] z12 | 
[V:4] B,,2C,2D,4_E,2C,2- | 
[V:1] z12 | 
[V:2] c3Bc2d4c2 | 
[V:3] z12 | 
[V:4] C,2F,3E,F,2G,4 | 
[V:1] z12 | 
[V:2] A8c3B | 
[V:3] z12 | 
[V:4] F,2D,4F,3E,C,2- | 
[V:1] z12 | 
[V:2] G2F2A3GE2D2 | 
[V:3] z12 | 
[V:4] C,B,,D,3C,A,,2G,,2D,2 | 
[V:1] z12 | 
[V:2] C2G2AG2EFED2 | 
[V:3] z12 | 
[V:4] E,3C,C,2B,,C,D,C,2=B,, | 
[V:1] z4D8 | 
[V:2] C4z4z4 | 
[V:3] z4G,,8 | 
[V:4] C,4z2B,,4A,,B,, | 
[V:1] E2F2G6A2- | 
[V:2] c12 | 
[V:3] C,12 | 
[V:4] C,3D,E,8 | 
[V:1] A2B2c4B3A | 
[V:2] A4G8 | 
[V:3] D,4E,8 | 
[V:4] F,4C,3A,,G,,4 | 
[V:1] A8F4 | 
[V:2] A3Bc4d4 | 
[V:3] F,8D,4 | 
[V:4] F,,8z4 | 
[V:1] G6F2D4 | 
[V:2] e4d6B2 | 
[V:3] C,4B,,8 | 
[V:4] z12 | 
[V:1] C4z2F4ED | 
[V:2] A2G4c2=B2A2 | 
[V:3] C,4D,8 | 
[V:4] z12 | 
[V:1] E3FG2A4F2 | 
[V:2] c4z4d4 | 
[V:3] C,8F,4 | 
[V:4] G,4E,2C,2D,4 | 
[V:1] G3FEDD4C2 | 
[V:2] e4c2B2A4 | 
[V:3] E,6F,6 | 
[V:4] C,6D,3B,,A,,2 | 
[V:1] E2D3B,A,2G,4 | 
[V:2] B3cd_ed4c2 | 
[V:3] G,3F,D,2F,2E,4 | 
[V:4] G,,4B,,2F,,2C,4 | 
[V:1] A,2B,3CA,2G,4 | 
[V:2] d6c3BAG | 
[V:3] D,4F,4E,2C,2- | 
[V:4] z2B,,3A,,F,,2C,4 | 
[V:1] z4G2E2F2A2- | 
[V:2] c2d4c2B2A2 | 
[V:3] C,2B,,2C,4D,4 | 
[V:4] A,,2G,,2z2G,2F,2D,2 | 
[V:1] AGE2C2D2z2D2 | 
[V:2] c2G2A2GG2F/E/D2 | 
[V:3] C,6B,,6 | 
[V:4] E,2C,2z2G,,2G,,4 | 
[V:1] E2F2G2A2B2G2 | 
[V:2] C2z2c2d4c2- | 
[V:3] C,2D,2E,2F,4E,2 | 
[V:4] G,2F,2E,2D,2B,,2C,2 | 
[V:1] A2Bc2BG3FD2 | 
[V:2] cde2f2ec2=B=BA | 
[V:3] F,2E,2C,2E,2D,4 | 
[V:4] F,,2G,,A,,2B,,C,2G,,4 | 
[V:1] E12 ||  
[V:2] c12 ||  
[V:3] C,12 ||  
[V:4] C,12 ||  
[V:1]  [K:F] [K:clef=treble][M:2/1]G8 | 
[V:2]  [K:F] [K:clef=treble-8][M:2/1]z8 | 
[V:3]  [K:F] [K:clef=bass][M:2/1]z8 | 
[V:4]  [K:F] [K:clef=bass][M:2/1]z8 | 
[V:1] F8 | 
[V:2] z8 | 
[V:3] z8 | 
[V:4] z8 | 
[V:1] E4G4- | 
[V:2] c8 | 
[V:3] z8 | 
[V:4] z8 | 
[V:1] G4G4 | 
[V:2] B8 | 
[V:3] z8 | 
[V:4] z8 | 
[V:1] A8 | 
[V:2] A4c4- | 
[V:3] z8 | 
[V:4] z8 | 
[V:1] G4G4 | 
[V:2] c4c4 | 
[V:3] z8 | 
[V:4] z8 | 
[V:1] F6G2- | 
[V:2] d6c2 | 
[V:3] z8 | 
[V:4] z8 | 
[V:1] G2E2D4 | 
[V:2] c4B4 | 
[V:3] z8 | 
[V:4] z8 | 
[V:1] C4z4 | 
[V:2] A2c4A2 | 
[V:3] z8 | 
[V:4] z8 | 
[V:1] E4F4 | 
[V:2] G4F4 | 
[V:3] z8 | 
[V:4] z8 | 
[V:1] F4E4 | 
[V:2] z4A4 | 
[V:3] z8 | 
[V:4] z8 | 
[V:1] D3EF2G2- | 
[V:2] B4B4 | 
[V:3] z8 | 
[V:4] z8 | 
[V:1] GFD2C2D2- | 
[V:2] B4A2B2- | 
[V:3] z8 | 
[V:4] z8 | 
[V:1] DCB,4A,G, | 
[V:2] BAG4^FE | 
[V:3] z8 | 
[V:4] z8 | 
[V:1] A,4G,4 | 
[V:2] ^F4G4 | 
[V:3] z8 | 
[V:4] z8 | 
[V:1] D4E4 | 
[V:2] B4c4 | 
[V:3] z8 | 
[V:4] z8 | 
[V:1] F4G4 | 
[V:2] d4G4 | 
[V:3] z8 | 
[V:4] z8 | 
[V:1] z4G4 | 
[V:2] d4e4 | 
[V:3] z8 | 
[V:4] z8 | 
[V:1] A4B4 | 
[V:2] f4g4 | 
[V:3] z8 | 
[V:4] z8 | 
[V:1] c4B2A2- | 
[V:2] e2f2g2f2- | 
[V:3] z8 | 
[V:4] z8 | 
[V:1] A2GFE3D | 
[V:2] fed4c2 | 
[V:3] z8 | 
[V:4] z8 | 
[V:1] F2D2E2D2- | 
[V:2] d2G4B2- | 
[V:3] z8 | 
[V:4] z8 | 
[V:1] DCA,2CDE2 | 
[V:2] BAF4G2 | 
[V:3] z8 | 
[V:4] z8 | 
[V:1] F2D4^C2 | 
[V:2] D2F2E4 | 
[V:3] z8 | 
[V:4] z8 | 
[V:1] D8 | 
[V:2] D8 | 
[V:3] z8 | 
[V:4] z4G,,4 | 
[V:1] z8 | 
[V:2] z4D4 | 
[V:3] z8 | 
[V:4] B,,4B,,4 | 
[V:1] z8 | 
[V:2] E4E4 | 
[V:3] z8 | 
[V:4] C,4C,4 | 
[V:1] z8 | 
[V:2] F4F4 | 
[V:3] z8 | 
[V:4] D,4D,4 | 
[V:1] z8 | 
[V:2] G4G4 | 
[V:3] z8 | 
[V:4] E,4E,4 | 
[V:1] z8 | 
[V:2] A4A4 | 
[V:3] z8 | 
[V:4] D,4F,4 | 
[V:1] z8 | 
[V:2] B4B4 | 
[V:3] z8 | 
[V:4] G,4G,4 | 
[V:1] z8 | 
[V:2] A4A4 | 
[V:3] z8 | 
[V:4] F,4D,4 | 
[V:1] z8 | 
[V:2] c4c4 | 
[V:3] z8 | 
[V:4] E,2F,3E,D,C, | 
[V:1] z8 | 
[V:2] d4d4 | 
[V:3] z8 | 
[V:4] B,,4F,4 | 
[V:1] z8 | 
[V:2] c2B2A4 | 
[V:3] z8 | 
[V:4] E,2G,2F,2D,2- | 
[V:1] z8 | 
[V:2] B2c3BAG | 
[V:3] z8 | 
[V:4] D,2_E,3D,C,B,, | 
[V:1] z8 | 
[V:2] F2D2C2D2 | 
[V:3] z8 | 
[V:4] A,,2B,,2A,,2D,2- | 
[V:1] z8 | 
[V:2] E4D4 | 
[V:3] z8 | 
[V:4] D,2C,2D,2G,,2- | 
[V:1] z8 | 
[V:2] E2D4G2- | 
[V:3] z8 | 
[V:4] G,,E,,F,,2G,,2z2 | 
[V:1] z8 | 
[V:2] GEF2G4 | 
[V:3] z8 | 
[V:4] G,,2A,,2B,,2C,2- | 
[V:1] z8 | 
[V:2] A2G4c2- | 
[V:3] z8 | 
[V:4] C,A,,B,,2C,2z2 | 
[V:1] z8 | 
[V:2] cAB2c4 | 
[V:3] z8 | 
[V:4] C,2D,2E,2F,2- | 
[V:1] z8 | 
[V:2] d2c4f2- | 
[V:3] z8 | 
[V:4] F,D,E,2F,2z2 | 
[V:1] z8 | 
[V:2] fde2f3e | 
[V:3] z8 | 
[V:4] F,2G,2A,2F,2- | 
[V:1] z8 | 
[V:2] d2c2e2d2- | 
[V:3] z8 | 
[V:4] F,2A,2G,2F,2- | 
[V:1] z8 | 
[V:2] dcc4=B2 | 
[V:3] z8 | 
[V:4] F,E,C,2D,4 | 
[V:1] E4E4 | 
[V:2] c4z4 | 
[V:3] G,8 | 
[V:4] C,8 | 
[V:1] F4F4 | 
[V:2] A4A4 | 
[V:3] F,8 | 
[V:4] z8 | 
[V:1] G4G4- | 
[V:2] G4c4 | 
[V:3] E,4G,4- | 
[V:4] C,8 | 
[V:1] G2F2D4 | 
[V:2] d6e2 | 
[V:3] G,4G,4 | 
[V:4] B,,8 | 
[V:1] C8 | 
[V:2] f4e4- | 
[V:3] A,6G,2 | 
[V:4] A,,4C,4- | 
[V:1] E4E4 | 
[V:2] e2c2c4 | 
[V:3] G,8 | 
[V:4] C,4C,4 | 
[V:1] F6E2- | 
[V:2] A4B4 | 
[V:3] F,6G,2- | 
[V:4] D,6C,2 | 
[V:1] E2C2D4 | 
[V:2] c4F4 | 
[V:3] G,2E,2D,4 | 
[V:4] C,4B,,4 | 
[V:1] E6F2 | 
[V:2] z4c4 | 
[V:3] C,4z4 | 
[V:4] A,,2C,4A,,2 | 
[V:1] G4G4 | 
[V:2] d4B4 | 
[V:3] B,,4D,2E,2 | 
[V:4] G,,4G,,4 | 
[V:1] A4F4 | 
[V:2] d2c4A2 | 
[V:3] F,4F,4 | 
[V:4] F,,8 | 
[V:1] G4z2C2- | 
[V:2] c2B2G4 | 
[V:3] E,2E,4D,E, | 
[V:4] z4C,4 | 
[V:1] C2F2G2A2- | 
[V:2] A4G2F2 | 
[V:3] F,4C,4 | 
[V:4] F,,4E,,2F,,2- | 
[V:1] A2G2E4 | 
[V:2] A2B2c4 | 
[V:3] C,4C,4 | 
[V:4] F,,2G,,2A,,4 | 
[V:1] z2G2F2E2- | 
[V:2] B3cd2G2- | 
[V:3] D,6C,2- | 
[V:4] G,,3A,,B,,2C,2- | 
[V:1] E2D4C2 | 
[V:2] G2B2A2G2 | 
[V:3] C,2B,,2C,4 | 
[V:4] C,2D,2E,4 | 
[V:1] D8 | 
[V:2] B4A2G2- | 
[V:3] G,,4z4 | 
[V:4] D,3E,F,2G,2 | 
[V:1] C4D4 | 
[V:2] G2c4=B2 | 
[V:3] z4G,,4 | 
[V:4] E,2F,2D,3C, | 
[V:1] E4F4 | 
[V:2] c8 | 
[V:3] C,6D,2- | 
[V:4] A,,2C,2F,,2B,,2- | 
[V:1] G8 | 
[V:2] z4B4 | 
[V:3] D,2E,4D,2 | 
[V:4] B,,2A,,2G,,4 | 
[V:1] C4z4 | 
[V:2] A2F2G4 | 
[V:3] F,4E,2C,2 | 
[V:4] F,,4C,4 | 
[V:1] z8 | 
[V:2] F4E4 | 
[V:3] D,4C,4 | 
[V:4] F,,2G,,2A,,4 | 
[V:1] z8 | 
[V:2] F2G3FD2 | 
[V:3] B,,4C,2B,,2 | 
[V:4] z2G,,2E,,F,,G,,2 | 
[V:1] z8 | 
[V:2] C2c2d2c2 | 
[V:3] C,2A,,2B,,2C,2 | 
[V:4] A,,2F,,2z2C,2- | 
[V:1] z8 | 
[V:2] f4e3f | 
[V:3] D,4C,4 | 
[V:4] C,2B,,2C,3D, | 
[V:1] z8 | 
[V:2] g2c2d2f2- | 
[V:3] z8 | 
[V:4] E,2F,4A,2 | 
[V:1] B4A3B | 
[V:2] f2e2f4 | 
[V:3] z8 | 
[V:4] G,4F,3D, | 
[V:1] c2F2G2B2- | 
[V:2] _e2d2B4 | 
[V:3] z8 | 
[V:4] C,2B,,4G,,2 | 
[V:1] B2A2B2c2 | 
[V:2] c4B2A2 | 
[V:3] z8 | 
[V:4] F,,4z4 | 
[V:1] A3FG2C2 | 
[V:2] F4c4 | 
[V:3] z8 | 
[V:4] D,3C,E,2F,2- | 
[V:1] D2F4E2 | 
[V:2] A4B4 | 
[V:3] z8 | 
[V:4] F,2A,2G,4 | 
[V:1] D2C2F2G2 | 
[V:2] A2c2d2e2 | 
[V:3] z8 | 
[V:4] F,4D,2C,2 | 
[V:1] A3GE2F2 | 
[V:2] f3ec4- | 
[V:3] z8 | 
[V:4] F,2G,2A,3G, | 
[V:1] G2C3A,B,2 | 
[V:2] c2A2G4 | 
[V:3] z8 | 
[V:4] E,2F,2G,4 | 
[V:1] C2E2D2G,2 | 
[V:2] z8 | 
[V:3] z8 | 
[V:4] C,3A,,B,,2C,2 | 
[V:1] G2F2D2E2- | 
[V:2] z8 | 
[V:3] z8 | 
[V:4] E,2D,2G,,2G,2- | 
[V:1] EDD4^C2 | 
[V:2] z4G4 | 
[V:3] z8 | 
[V:4] G,2F,2E,4 | 
[V:1] D4D4 | 
[V:2] A4B4 | 
[V:3] z4G,,4 | 
[V:4] D,8 | 
[V:1] E4F4 | 
[V:2] c4A4 | 
[V:3] C,4D,4 | 
[V:4] z4D,4 | 
[V:1] G6F2 | 
[V:2] c2B2G4 | 
[V:3] E,8 | 
[V:4] C,4C,4 | 
[V:1] D4z4 | 
[V:2] B4c2d2- | 
[V:3] F,8- | 
[V:4] B,,4A,,2B,,2- | 
[V:1] z4C4 | 
[V:2] d2cBA4 | 
[V:3] F,8 | 
[V:4] B,,2A,,G,,F,,4 | 
[V:1] B,2D4E2 | 
[V:2] G4B4 | 
[V:3] D,4B,,4 | 
[V:4] G,,8 | 
[V:1] F4F4- | 
[V:2] A4B4 | 
[V:3] C,4z4 | 
[V:4] F,,4B,,4 | 
[V:1] F2E2D4 | 
[V:2] c4B4 | 
[V:3] F,8 | 
[V:4] A,,4B,,4 | 
[V:1] C4D4 | 
[V:2] G4B4 | 
[V:3] E,4F,4 | 
[V:4] C,4B,,4 | 
[V:1] z4D4- | 
[V:2] B6A2 | 
[V:3] G,4F,4 | 
[V:4] G,,4B,,4- | 
[V:1] D4C4 | 
[V:2] F4A4 | 
[V:3] D,4F,4- | 
[V:4] B,,2A,,2F,,4 | 
[V:1] F4G2F2- | 
[V:2] A4G2A2- | 
[V:3] F,2E,2C,4- | 
[V:4] z2F,,2E,,2F,,2- | 
[V:1] FEC2D2B,2 | 
[V:2] A2F4E2 | 
[V:3] C,4B,,4 | 
[V:4] F,,2A,,2G,,4 | 
[V:1] A,4G,4 | 
[V:2] F4E3C | 
[V:3] C,4z2C,2- | 
[V:4] F,,4z4 | 
[V:1] G8 | 
[V:2] D4C2c2- | 
[V:3] C,2B,,2C,4 | 
[V:4] z8 | 
[V:1] F4F4 | 
[V:2] c2=B2=B2A2 | 
[V:3] D,8 | 
[V:4] z8 | 
[V:1] E6C2 | 
[V:2] c6A2 | 
[V:3] C,8 | 
[V:4] G,8 | 
[V:1] G4A4 | 
[V:2] G4c4 | 
[V:3] C,6A,,2 | 
[V:4] E,8 | 
[V:1] G4A2c2- | 
[V:2] d4e4 | 
[V:3] B,,4C,4 | 
[V:4] D,4C,4 | 
[V:1] c2B2B2A2 | 
[V:2] c4d2f2- | 
[V:3] z4D,4 | 
[V:4] F,8 | 
[V:1] c3BG4 | 
[V:2] f2e2e2d2 | 
[V:3] C,8 | 
[V:4] G,6E,2 | 
[V:1] z4G4- | 
[V:2] f4e2c2 | 
[V:3] B,,4C,4 | 
[V:4] D,4C,4 | 
[V:1] G4E4 | 
[V:2] d4c4 | 
[V:3] G,,4A,,4 | 
[V:4] B,,4C,4 | 
[V:1] G2F2D4 | 
[V:2] z4d4 | 
[V:3] B,,8 | 
[V:4] G,,8 | 
[V:1] E4E4 | 
[V:2] G4c4 | 
[V:3] C,8 | 
[V:4] z4G,4 | 
[V:1] F4G4 | 
[V:2] d4e4 | 
[V:3] z8 | 
[V:4] F,4E,4 | 
[V:1] A6F2 | 
[V:2] f6e2 | 
[V:3] z8 | 
[V:4] D,4F,4- | 
[V:1] A4G4- | 
[V:2] c4c4 | 
[V:3] F,4E,4 | 
[V:4] F,2E,2C,4 | 
[V:1] G2F2D4 | 
[V:2] d6cB | 
[V:3] D,4F,4- | 
[V:4] B,,6A,,2 | 
[V:1] C4E4 | 
[V:2] A4G4 | 
[V:3] F,2E,2C,4- | 
[V:4] F,,4z4 | 
[V:1] F3GA4 | 
[V:2] c6A2 | 
[V:3] C,4F,4 | 
[V:4] F,,8 | 
[V:1] G2E4F2 | 
[V:2] B4c4 | 
[V:3] E,4A,4 | 
[V:4] G,,4A,,4 | 
[V:1] G3FD4 | 
[V:2] d4B4 | 
[V:3] G,2G,4F,G, | 
[V:4] B,,8 | 
[V:1] C4E4 | 
[V:2] z4c4 | 
[V:3] A,8 | 
[V:4] A,,4C,4 | 
[V:1] F4G4 | 
[V:2] d4d4 | 
[V:3] z4D,4 | 
[V:4] B,,4G,,4- | 
[V:1] B4A4- | 
[V:2] B4d2c2 | 
[V:3] E,4F,4 | 
[V:4] G,,4F,,4- | 
[V:1] A2F2A2c2- | 
[V:2] d2f4e2 | 
[V:3] A,8 | 
[V:4] F,,8 | 
[V:1] c2BAG4 | 
[V:2] e8 | 
[V:3] G,4E,4- | 
[V:4] C,8 | 
[V:1] A8 | 
[V:2] c4d4- | 
[V:3] E,4F,4 | 
[V:4] A,,4F,,4 | 
[V:1] z4G4 | 
[V:2] d4B4 | 
[V:3] D,8 | 
[V:4] G,,8 | 
[V:1] C6D2 | 
[V:2] A4G4- | 
[V:3] F,4E,4 | 
[V:4] F,,4C,4- | 
[V:1] E4F4 | 
[V:2] G4c4 | 
[V:3] C,8 | 
[V:4] C,4A,,4 | 
[V:1] G3FD4 | 
[V:2] B2B4A2 | 
[V:3] D,8 | 
[V:4] G,,8 | 
[V:1] z4A4- | 
[V:2] c8 | 
[V:3] C,8 | 
[V:4] A,,4F,,4- | 
[V:1] A4A4 | 
[V:2] A4F4 | 
[V:3] F,8 | 
[V:4] F,,8 | 
[V:1] B4A2A2- | 
[V:2] G4A2c2 | 
[V:3] B,,4F,4 | 
[V:4] E,,4F,,4 | 
[V:1] A2G2A3B | 
[V:2] B4A4 | 
[V:3] G,4D,4 | 
[V:4] z8 | 
[V:1] c4B2A2- | 
[V:2] z2A2B2c2 | 
[V:3] C,4G,2F,2 | 
[V:4] F,,4G,,2A,,2- | 
[V:1] A2GFE4 | 
[V:2] d4c4 | 
[V:3] A,4G,2E,2 | 
[V:4] A,,2B,,2C,4 | 
[V:1] z8 | 
[V:2] B2A4GF | 
[V:3] D,4z4 | 
[V:4] z4F,,4 | 
[V:1] z8 | 
[V:2] E2D4G2- | 
[V:3] z8 | 
[V:4] G,,4B,,4 | 
[V:1] C4B,3C | 
[V:2] G2^F2G4- | 
[V:3] z4D,4 | 
[V:4] A,,4G,,4- | 
[V:1] D2E2D2G2- | 
[V:2] G4z4 | 
[V:3] B,,2C,2D,2E,2 | 
[V:4] G,,4z4 | 
[V:1] GFD2F2E2- | 
[V:2] z8 | 
[V:3] D,2G,2F,2G,2- | 
[V:4] z8 | 
[V:1] E2D4^C2 | 
[V:2] z8 | 
[V:3] G,2D,2E,4 | 
[V:4] z8 | 
[V:1] D4F4 | 
[V:2] z4d4 | 
[V:3] D,8 | 
[V:4] z4B,,4 | 
[V:1] E3CG2A2 | 
[V:2] G4B2Ac- | 
[V:3] C,3D,E,2F,2 | 
[V:4] C,3A,,G,,2F,,2 | 
[V:1] G2c3BG2 | 
[V:2] cBA2G4 | 
[V:3] E,2F,2C,4 | 
[V:4] C,3D,E,4 | 
[V:1] A4G3F | 
[V:2] z2F2G2B2- | 
[V:3] F,,4C,2G,,2- | 
[V:4] F,3E,C,2D,2- | 
[V:1] D2E4D2- | 
[V:2] BAc4B2 | 
[V:3] G,,2G,4G,2- | 
[V:4] D,2C,3B,,G,,2 | 
[V:1] DCA,2B,2G,2 | 
[V:2] A3G/F/EDG2- | 
[V:3] G,E,F,2G,2E,2 | 
[V:4] A,,4G,,4 | 
[V:1] A,4B,3C | 
[V:2] G2F2G2B2- | 
[V:3] D,4z2G,2 | 
[V:4] z4G,,3A,, | 
[V:1] D3EF2F2- | 
[V:2] Bcd3Bc2- | 
[V:3] F,3E,D,2C,2 | 
[V:4] B,,2B,,4A,,2 | 
[V:1] FEC2G2F2 | 
[V:2] c2f2e2d2- | 
[V:3] F,3E,C,2D,2 | 
[V:4] F,,4z4 | 
[V:1] G4C2D2 | 
[V:2] dcA2G2B2 | 
[V:3] B,,C,2D,E,2F,2 | 
[V:4] z2C,4B,,2 | 
[V:1] E3FG2A2 | 
[V:2] c3de2f2 | 
[V:3] A,2G,4C,2- | 
[V:4] A,,C,2B,,G,,2F,,2 | 
[V:1] G2A4GF | 
[V:2] e2c4=B2 | 
[V:3] C,2E,2D,4 | 
[V:4] C,4F,4 | 
[V:1] E2G2F2A2- | 
[V:2] c8- | 
[V:3] C,8- | 
[V:4] z4F,,4- | 
[V:1] A2GFE4- | 
[V:2] c8- | 
[V:3] C,8- | 
[V:4] F,,4C,4- | 
[V:1] E2C2E3F | 
[V:2] c8- | 
[V:3] C,8- | 
[V:4] C,8 | 
[V:1] G8 |]  
[V:2] c8 |]  
[V:3] C,8 |]  
[V:4] C,8 |]  



